assets/img/svg/manageinvoicing-icon.svg

<svg width="25" height="25" viewBox="0 0 25 25" fill="none" xmlns="http://www.w3.org/2000/svg">
<g clip-path="url(#clip0_46_1212)">
<path d="M8.24915 15.9484V2.27832L9.74915 3.03777L11.2491 2.27832L12.7463 3.03777L14.2637 2.27832L15.7491 3.03777L17.2393 2.27832L18.736 3.03777L20.2491 2.27832L21.7496 3.03777L23.2491 2.27832V12.9106" stroke="#591567" stroke-width="1.5189" stroke-linejoin="round"/>
<path d="M23.2491 12.9106V18.2268C23.2491 19.2339 22.8541 20.1997 22.1508 20.9118C21.4475 21.624 20.4937 22.024 19.4991 22.024V22.024C18.5046 22.024 17.5508 21.624 16.8475 20.9118C16.1442 20.1997 15.7491 19.2339 15.7491 18.2268V15.9484H2.99914C2.90041 15.9476 2.80249 15.9666 2.7111 16.0044C2.61971 16.0423 2.53668 16.0982 2.46686 16.1689C2.39704 16.2396 2.34183 16.3237 2.30445 16.4162C2.26707 16.5088 2.24827 16.6079 2.24914 16.7079C2.24914 19.7457 2.56508 22.024 5.99914 22.024H19.4991" stroke="#591567" stroke-width="1.5189" stroke-linejoin="round"/>
<path d="M14.2491 10.6323H20.2491M11.2491 6.83508H20.2491H11.2491Z" stroke="#591567" stroke-width="1.5189" stroke-linecap="round" stroke-linejoin="round"/>
</g>
<defs>
<clipPath id="clip0_46_1212">
<rect width="24" height="24.3024" fill="white" transform="translate(0.749146)"/>
</clipPath>
</defs>
</svg>

<svg width="25" height="25" fill="none" xmlns="http://www.w3.org/2000/svg"><g clip-path="url(#clip0_46_1212)" stroke="#591567" stroke-width="1.519" stroke-linejoin="round"><path d="M8.25 15.948V2.278l1.5.76 1.5-.76 1.496.76 1.518-.76 1.485.76 1.49-.76 1.497.76 1.513-.76 1.5.76 1.5-.76v10.633"/><path d="M23.25 12.91v5.317a3.821 3.821 0 01-1.1 2.685 3.726 3.726 0 01-2.65 1.112v0c-.995 0-1.95-.4-2.652-1.112a3.821 3.821 0 01-1.099-2.685v-2.279H3a.738.738 0 00-.695.468.762.762 0 00-.055.292c0 3.038.316 5.316 3.75 5.316h13.5"/><path d="M14.25 10.632h6m-9-3.797h9-9z" stroke-linecap="round"/></g><defs><clipPath id="clip0_46_1212"><path fill="#fff" transform="translate(.75)" d="M0 0h24v24.302H0z"/></clipPath></defs></svg>
